X: 38
T:Drive The Cold Winter Away
M:6/8
L:1/8
K:F
D| F>ED A2 d|c>BA f2 F|G2 A B>cB|A3 A2|D F>ED A2 B|c>BA f2 F|G2 A B>cB|A3 A2:|
|: d|c>BA c2 c|B>AG B2 B|A>GF E2 D|f3 f2 d|c>BA c2 c|B>AG B2 B|A>GF E>DE|D3 D3:|

